X:23
T:Shandon Bells
M:6/8
R:jig
C:Traditional
K:D
AFD DFA | ded cBA | BGE E2G | B2A Bcd |
AFD DFA | ded cBA | Bcd ecA |[1 ded d2B :|[2 ded d2g |]
|: f2d dcd | faa afd | cAA eAA | cAA efg |
fdd dcd | faa afd | Bcd ecA |[1 ded d2g :|[2 ded d2B |]

